X: 1
T:Si god afton och god kv\"all
C:anon.
O:Sweden
Z:Transcribed by Frank Nordberg - http://www.musicaviva.com
M:C|
L:1/4
Q:1/4=180
K:D
AG|"D"F>GFE|"D"D2GF|"A7"(E>D)CD|"A7"E2CD|
w:Si god af-ton och god kv\"all, min ut-val-_das-te v\"an, hu-ru
"A7"(EA)AA|"E7"(^GB)BG|"A7"A4-|"A7"A z AG|
w:le--ver nu v\"arl--den med dig?_ Har du
"D"F>GFE|"D"D2GF|"A7"E>DCB,|"A7"A,2|:AG|
w:h\"al-san och m\aar bra, som jag tror visst att du har, har du
"D"(F>D)DD|"A7"(CE)GC|"D"D4-|D z:|
w:h\"al--san, visst ro--ar det mig!_
W:
W:Si god afton och god kv\"all,
W:min utvaldaste v\"an,
W:huru lever nu v\"arlden med dig?
W:Har du h\"alsan och m\aar bra,
W:som jag tror visst att du har,
W:har du h\"alsan, visst roar det mig!
W:
W:Har du silver, har du gull,
W:har du kistorna full?
W:Har du penningar, visst roar det mig.
W:Jag har ett f\"orn\"ojsamt sinn
W:det \"ar rikedommen min,
W:det \"ar bettre \"an penningar och gull.
W:
W:N\"ar jag t\"ankar upp\aa dig,
W:r\"ores blodet uti mig,
W:lilla v'annen f\"orgl\"om aldrig mig.
W:Ser du stj\"arnorna de sm\aa
W:upp\aa himmelen den bl\aa
W:falla neder till jorden som str\aa.
W:
W:F\"orr skall sj\"oar och strand
W:bliva torra som sand,
W:f\"orran jag tager mig n\aagon ann',
W:F\"orr skall m\aane och sol
W:falla neder p\aa v\aar jord,
W:f\"orran jag \"andrar dessa ord.
